X: 230
T: Bill Gilbert's 1st Set Tune
B: australian dance tunes
M:6/8
L:1/8
Q: 3/8=100
K:D
V:1 
F2 G|:AFG AFG|A2 F f2 d|e2 c dcB|A3 z2 F|!
GEF GEF|G2 E ecd|cBA GFE|1F3:|2D3 d2 A|!
d3 FFG|F2 E D2 F|A2 A EFG|F3 EGE|!
DDD d2 d|F2 A d2 d|cBA GFE|D3:|
% abcbook-tune_id 62a078501c3719ff8f17c6ec


% abcbook-boost 0
% abcbook-tablature 
% abcbook-transpose 
% abcbook-lastupdated 1654683750431
% abcbook-soundfonts 
% abcbook-repeats 1


